src/assets/outline/Html3.svg

<svg width="24" height="24" viewBox="0 0 24 24"  xmlns="http://www.w3.org/2000/svg">
<path d="M12 22.71C11.84 22.71 11.68 22.69 11.52 22.64L5.44 20.9C4.75 20.7 4.26 20.12 4.18 19.41L2.38 3.19C2.33 2.7 2.48 2.19999 2.82 1.82999C3.15 1.45999 3.63 1.25 4.12 1.25H19.89C20.39 1.25 20.86 1.45999 21.19 1.82999C21.52 2.19999 21.68 2.7 21.63 3.19L19.83 19.41C19.75 20.12 19.26 20.7 18.57 20.9L12.49 22.64C12.32 22.69 12.16 22.71 12 22.71ZM4.12 2.75C4.02 2.75 3.96 2.79999 3.93 2.82999C3.9 2.85999 3.86 2.92999 3.87 3.01999L5.67 19.24C5.68 19.34 5.75 19.43 5.85 19.45L11.93 21.19C11.97 21.2 12.02 21.2 12.07 21.19L18.15 19.45C18.25 19.42 18.32 19.34 18.33 19.24L20.13 3.01999C20.14 2.91999 20.1 2.85999 20.07 2.82999C20.04 2.79999 19.98 2.75 19.88 2.75H4.12Z" />
<path d="M11.9998 17.7505C11.9298 17.7505 11.8598 17.7405 11.7898 17.7205L8.28977 16.7205C8.02977 16.6505 7.82977 16.4405 7.76977 16.1805L7.26977 14.1805C7.16977 13.7805 7.40977 13.3704 7.81977 13.2704C8.21977 13.1704 8.62976 13.4105 8.72976 13.8205L9.12977 15.4005L12.0098 16.2205L14.8198 15.4205L15.6698 7.75046L7.50977 7.73047C7.09977 7.73047 6.75977 7.39047 6.75977 6.98047C6.75977 6.57047 7.09977 6.23047 7.50977 6.23047L16.5098 6.25046C16.7198 6.25046 16.9298 6.34046 17.0698 6.50046C17.2098 6.66046 17.2798 6.87044 17.2598 7.08044L16.2598 16.0804C16.2298 16.3804 16.0098 16.6305 15.7198 16.7205L12.2198 17.7205C12.1398 17.7405 12.0698 17.7505 11.9998 17.7505Z" />
<path d="M16.06 11.75H8C7.59 11.75 7.25 11.41 7.25 11C7.25 10.59 7.59 10.25 8 10.25H16.06C16.47 10.25 16.81 10.59 16.81 11C16.81 11.41 16.47 11.75 16.06 11.75Z" />
</svg>

<?xml version="1.0" encoding="UTF-8"?>
<svg width="24" height="24" viewBox="0 0 24 24" xmlns="http://www.w3.org/2000/svg">
 <path d="m12 22.71c-0.16 0-0.32-0.02-0.48-0.07l-6.08-1.74c-0.69-0.2-1.18-0.78-1.26-1.49l-1.8-16.22c-0.05-0.49 0.1-0.99001 0.44-1.36 0.33-0.37 0.81-0.57999 1.3-0.57999h15.77c0.5 0 0.97 0.20999 1.3 0.57999s0.49 0.87001 0.44 1.36l-1.8 16.22c-0.08 0.71-0.57 1.29-1.26 1.49l-6.08 1.74c-0.17 0.05-0.33 0.07-0.49 0.07zm-7.88-19.96c-0.1 0-0.16 0.04999-0.19 0.07999s-0.07 0.1-0.06 0.19l1.8 16.22c0.01 0.1 0.08 0.19 0.18 0.21l6.08 1.74c0.04 0.01 0.09 0.01 0.14 0l6.08-1.74c0.1-0.03 0.17-0.11 0.18-0.21l1.8-16.22c0.01-0.1-0.03-0.16-0.06-0.19s-0.09-0.07999-0.19-0.07999h-15.76z"/>
 <path d="m12 17.75c-0.07 0-0.14-0.01-0.21-0.03l-3.5-1c-0.26-0.07-0.46-0.28-0.52-0.54l-0.5-2c-0.1-0.4 0.14-0.8101 0.55-0.9101 0.4-0.1 0.80999 0.1401 0.90999 0.5501l0.40001 1.58 2.88 0.82 2.81-0.8 0.85-7.67-8.16-0.01999c-0.41 0-0.75-0.34-0.75-0.75s0.34-0.75 0.75-0.75l9 0.01999c0.21 0 0.42 0.09 0.56 0.25s0.21 0.36998 0.19 0.57998l-1 9c-0.03 0.3-0.25 0.5501-0.54 0.6401l-3.5 1c-0.08 0.02-0.15 0.03-0.22 0.03z"/>
 <path d="m16.06 11.75h-8.06c-0.41 0-0.75-0.34-0.75-0.75s0.34-0.75 0.75-0.75h8.06c0.41 0 0.75 0.34 0.75 0.75s-0.34 0.75-0.75 0.75z"/>
</svg>
